img/mobile-nav/5.svg

<svg width="42" height="42" viewBox="0 0 42 42" fill="none" xmlns="http://www.w3.org/2000/svg">
<path d="M41 24.0476V17.9524L35.7391 17.1905C35.38 15.7962 34.8305 14.4809 34.1162 13.2714L37.2971 9.01334L32.9867 4.70382L28.7286 7.88477C27.5181 7.17048 26.2038 6.6219 24.8095 6.2619L24.0476 1H17.9524L17.1905 6.26095C15.7962 6.62 14.481 7.16952 13.2714 7.88381L9.01333 4.70286L4.70379 9.01238L7.88477 13.2705C7.17048 14.481 6.62193 15.7952 6.26193 17.1895L1 17.9524V24.0476L6.26094 24.8095C6.61999 26.2038 7.1686 27.5191 7.88384 28.7286L4.70286 32.9867L9.0124 37.2962L13.2704 34.1152C14.4809 34.8295 15.7953 35.3781 17.1895 35.7381L17.9514 40.999H24.0466L24.8086 35.7381C26.2029 35.3791 27.5181 34.8295 28.7276 34.1152L32.9857 37.2962L37.2962 32.9867L34.1152 28.7286C34.8295 27.5181 35.3781 26.2038 35.7381 24.8095L41 24.0476Z" stroke="white" stroke-width="2" stroke-miterlimit="10" stroke-linecap="round" stroke-linejoin="round"/>
<path d="M21 26C23.7614 26 26 23.7614 26 21C26 18.2386 23.7614 16 21 16C18.2386 16 16 18.2386 16 21C16 23.7614 18.2386 26 21 26Z" stroke="#A50034" stroke-width="2" stroke-miterlimit="10" stroke-linecap="round" stroke-linejoin="round"/>
<path d="M21 30C25.9706 30 30 25.9706 30 21C30 16.0294 25.9706 12 21 12C16.0294 12 12 16.0294 12 21C12 25.9706 16.0294 30 21 30Z" stroke="#A50034" stroke-width="2" stroke-miterlimit="10" stroke-linecap="round" stroke-linejoin="round"/>
</svg>

<svg xmlns="http://www.w3.org/2000/svg" fill="none" viewBox="0 0 42 42">
  <path stroke="#fff" stroke-linecap="round" stroke-linejoin="round" stroke-miterlimit="10" stroke-width="2" d="M41 24.048v-6.096l-5.26-.762a15.11 15.11 0 0 0-1.624-3.919l3.181-4.258-4.31-4.31-4.258 3.182a15.157 15.157 0 0 0-3.92-1.623L24.049 1h-6.096l-.762 5.261a15.11 15.11 0 0 0-3.919 1.623L9.013 4.703l-4.31 4.31 3.182 4.258a15.156 15.156 0 0 0-1.623 3.918L1 17.953v6.096l5.26.762c.36 1.394.909 2.71 1.624 3.919l-3.181 4.258 4.31 4.31 4.257-3.182a15.158 15.158 0 0 0 3.92 1.623L17.95 41h6.096l.762-5.26a15.107 15.107 0 0 0 3.919-1.624l4.258 3.181 4.31-4.31-3.18-4.257a15.156 15.156 0 0 0 1.622-3.92L41 24.049Z"/>
  <path stroke="#A50034" stroke-linecap="round" stroke-linejoin="round" stroke-miterlimit="10" stroke-width="2" d="M21 26a5 5 0 1 0 0-10 5 5 0 0 0 0 10Z"/>
  <path stroke="#A50034" stroke-linecap="round" stroke-linejoin="round" stroke-miterlimit="10" stroke-width="2" d="M21 30a9 9 0 1 0 0-18 9 9 0 0 0 0 18Z"/>
</svg>
